X:175
T:The Joys of Wedlock
O:No 175 William Clarke of Feltwell
M:6/8
L:1/8
N:In M.S. bar A4 is |FAAA D|
K:G
D|GAG GBd|gfe d2c|Bdg dBG|FAA A2D|GAG GBd|gfe d2c| BdB cAF|GBGG2::c|Bdg dBG|Bdg d2c|Bdg dBG|FAAA2c|Bdg dBG|Bdgd2c|BdB cAF|GAGG2:|

